packages/IcoMoon/src/InsertTemplateIcon/index.svg

<svg version="1.1" xmlns="http://www.w3.org/2000/svg" width="16" height="16" viewBox="0 0 16 16">
<path d="M6 3h2v1h-2zM9 3h2v1h-2zM14 3v4h-3v-1h2v-2h-1v-1zM5 6h2v1h-2zM8 6h2v1h-2zM3 4v2h1v1h-2v-4h3v1zM6 9h2v1h-2zM9 9h2v1h-2zM14 9v4h-3v-1h2v-2h-1v-1zM5 12h2v1h-2zM8 12h2v1h-2zM3 10v2h1v1h-2v-4h3v1zM15 1h-14v14h14v-14zM16 0v0 16h-16v-16h16z"></path>
</svg>

<svg xmlns="http://www.w3.org/2000/svg" viewBox="0 0 16 16">
  <path d="M6 3h2v1H6zm3 0h2v1H9zm5 0v4h-3V6h2V4h-1V3zM5 6h2v1H5zm3 0h2v1H8zM3 4v2h1v1H2V3h3v1zm3 5h2v1H6zm3 0h2v1H9zm5 0v4h-3v-1h2v-2h-1V9zm-9 3h2v1H5zm3 0h2v1H8zm-5-2v2h1v1H2V9h3v1zm12-9H1v14h14V1zm1-1v16H0V0h16z"/>
</svg>
